icons/fill-new-finance-money.svg

<svg xmlns="http://www.w3.org/2000/svg" width="32px" height="32px" viewBox="0 0 32 32" version="1.1">
    <title>fill-new-finance-money</title>
    <g id="fill-new-finance-money" stroke-width="1" fill-rule="evenodd">
        <path d="M29,12 C29.5522847,12 30,12.4477153 30,13 L30,27 C30,27.5522847 29.5522847,28 29,28 L9,28 C8.44771525,28 8,27.5522847 8,27 L8,22 L25,22 C25.5128358,22 25.9355072,21.6139598 25.9932723,21.1166211 L26,21 L26,12 L29,12 Z M23,4 C23.5522847,4 24,4.44771525 24,5 L24,19 C24,19.5522847 23.5522847,20 23,20 L3,20 C2.44771525,20 2,19.5522847 2,19 L2,5 C2,4.44771525 2.44771525,4 3,4 L23,4 Z M13,8 C10.790861,8 9,9.790861 9,12 C9,14.209139 10.790861,16 13,16 C15.209139,16 17,14.209139 17,12 C17,9.790861 15.209139,8 13,8 Z" id="&#24418;&#29366;" />
    </g>
</svg>

<svg xmlns="http://www.w3.org/2000/svg" viewBox="0 0 32 32"><path fill="currentColor" d="M29 12a1 1 0 0 1 1 1v14a1 1 0 0 1-1 1H9a1 1 0 0 1-1-1v-5h17a1 1 0 0 0 .993-.883L26 21v-9zm-6-8a1 1 0 0 1 1 1v14a1 1 0 0 1-1 1H3a1 1 0 0 1-1-1V5a1 1 0 0 1 1-1zM13 8a4 4 0 1 0 0 8 4 4 0 0 0 0-8"/></svg>
